public/img/svg/advantage-1.svg

<svg fill="none" height="73" viewBox="0 0 73 73" width="73" xmlns="http://www.w3.org/2000/svg"><g fill="#000"><path d="m69.7136 39.8758h-15.9821c-.258 0-.5055-.1025-.688-.285-.1824-.1825-.285-.43-.285-.688v-15.9821c0-.258.1026-.5055.285-.688.1825-.1824.43-.2849.688-.2849h15.9821c.258 0 .5055.1025.688.2849.1824.1825.2849.43.2849.688v15.9821c0 .258-.1025.5055-.2849.688-.1825.1825-.43.285-.688.285zm-15.0091-1.946h14.0361v-14.0361h-14.0361z"/><path d="m19.5336 20.5945h-15.98201c-.25805 0-.50553-.1025-.688-.285-.18247-.1824-.28498-.4299-.28498-.688v-15.98105c0-.25805.10251-.50552.28498-.68799s.42995-.28498.688-.28498h15.98201c.2581 0 .5056.10251.688.28498.1825.18247.285.42994.285.68799v15.98105c0 .2581-.1025.5056-.285.688-.1824.1825-.4299.285-.688.285zm-15.00904-1.9459h14.03614v-14.03517h-14.03614z"/><path d="m11.5426 46.3023c-.2581 0-.5056-.1025-.688-.285-.1825-.1825-.285-.43-.285-.688v-25.7079c0-.258.1025-.5055.285-.688.1824-.1825.4299-.285.688-.285.258 0 .5055.1025.6879.285.1825.1825.285.43.285.688v25.7079c0 .258-.1025.5055-.285.688-.1824.1825-.4299.285-.6879.285z"/><path d="m11.5425 46.2984c-.258 0-.5055-.1026-.6879-.2851l-6.24257-6.2426c-.16596-.1851-.25476-.4267-.24816-.6753.0066-.2485.1081-.4851.28366-.6612.17556-.176.41186-.2782.66038-.2855s.49042.0808.67601.2463l5.55468 5.5547 5.5557-5.5547c.1835-.1773.4293-.2754.6844-.2731.2551.0022.4991.1045.6795.2849s.2828.4244.285.6795c.0022.2552-.0959.5009-.2731.6844l-6.2397 6.2426c-.1824.1825-.4299.2851-.6879.2851z"/><path d="m19.5336 69.5652h-15.98201c-.25805 0-.50553-.1025-.688-.285-.18247-.1824-.28498-.4299-.28498-.688v-15.981c0-.2581.10251-.5056.28498-.688.18247-.1825.42995-.285.688-.285h15.98201c.2581 0 .5056.1025.688.285.1825.1824.285.4299.285.688v15.981c0 .2581-.1025.5056-.285.688-.1824.1825-.4299.285-.688.285zm-15.00904-1.9459h14.03614v-14.0352h-14.03614z"/><path d="m56.1017 61.0926c-.2372.0022-.467-.0823-.6463-.2376-.1792-.1554-.2956-.3708-.3271-.6059-.0316-.2351.0238-.4737.1558-.6708s.3314-.3392.5608-.3996c.7887-.2828 1.5217-.7017 2.1658-1.2376.199-.1606.4533-.2364.7078-.2109.2544.0254.4887.15.652.3468s.2425.45.2206.7048c-.022.2548-.1433.4907-.3379.6567-.8407.6988-1.8 1.2409-2.8323 1.6005-.1028.0352-.2106.0533-.3192.0536z"/><path d="m38.5786 61.579h-8.4941c-.258 0-.5055-.1025-.688-.285-.1824-.1824-.2849-.4299-.2849-.688 0-.258.1025-.5055.2849-.688.1825-.1824.43-.2849.688-.2849h8.4941c.2581 0 .5055.1025.688.2849.1825.1825.285.43.285.688 0 .2581-.1025.5056-.285.688-.1825.1825-.4299.285-.688.285z"/><path d="m48.9505 61.579h-3.0356c-.2581 0-.5056-.1025-.688-.285-.1825-.1824-.285-.4299-.285-.688 0-.258.1025-.5055.285-.688.1824-.1824.4299-.2849.688-.2849h3.0356c.2581 0 .5056.1025.688.2849.1825.1825.285.43.285.688 0 .2581-.1025.5056-.285.688-.1824.1825-.4299.285-.688.285z"/><path d="m61.7257 49.0471c-.2581 0-.5056-.1025-.688-.285-.1825-.1824-.285-.4299-.285-.688v-9.1751c0-.2581.1025-.5055.285-.688.1824-.1825.4299-.285.688-.285.258 0 .5055.1025.688.285.1824.1825.2849.4299.2849.688v9.1751c0 .2581-.1025.5056-.2849.688-.1825.1825-.43.285-.688.285z"/><path d="m35.542 67.0285c-.2579.0002-.5053-.102-.6879-.2841l-5.4555-5.4545c-.0904-.0903-.1622-.1976-.2112-.3158-.0489-.1181-.0741-.2447-.0741-.3725 0-.1279.0252-.2545.0741-.3726.049-.1181.1208-.2255.2112-.3158l5.4555-5.4487c.1835-.1772.4293-.2753.6844-.2731.2551.0023.4991.1046.6795.285s.2827.4244.285.6795c.0022.2551-.0959.5009-.2731.6844l-4.7676 4.7676 4.7676 4.7676c.136.136.2286.3094.2662.4981.0375.1887.0182.3843-.0554.5621-.0736.1777-.1983.3297-.3583.4366-.1599.1069-.348.164-.5404.164z"/></g></svg>

<svg width="73" height="73" viewBox="0 0 73 73" fill="none" xmlns="http://www.w3.org/2000/svg">
<path d="M69.7136 39.8758H53.7315C53.4735 39.8758 53.226 39.7733 53.0435 39.5908C52.8611 39.4083 52.7585 39.1608 52.7585 38.9028V22.9207C52.7585 22.6627 52.8611 22.4152 53.0435 22.2327C53.226 22.0503 53.4735 21.9478 53.7315 21.9478H69.7136C69.9716 21.9478 70.2191 22.0503 70.4016 22.2327C70.584 22.4152 70.6865 22.6627 70.6865 22.9207V38.9028C70.6865 39.1608 70.584 39.4083 70.4016 39.5908C70.2191 39.7733 69.9716 39.8758 69.7136 39.8758ZM54.7045 37.9298H68.7406V23.8937H54.7045V37.9298Z" fill="black"/>
<path d="M19.5336 20.5945H3.55159C3.29354 20.5945 3.04606 20.492 2.86359 20.3095C2.68112 20.1271 2.57861 19.8796 2.57861 19.6215V3.64045C2.57861 3.3824 2.68112 3.13493 2.86359 2.95246C3.04606 2.76999 3.29354 2.66748 3.55159 2.66748H19.5336C19.7917 2.66748 20.0392 2.76999 20.2216 2.95246C20.4041 3.13493 20.5066 3.3824 20.5066 3.64045V19.6215C20.5066 19.8796 20.4041 20.1271 20.2216 20.3095C20.0392 20.492 19.7917 20.5945 19.5336 20.5945ZM4.52456 18.6486H18.5607V4.61343H4.52456V18.6486Z" fill="black"/>
<path d="M11.5426 46.3023C11.2845 46.3023 11.037 46.1998 10.8546 46.0173C10.6721 45.8348 10.5696 45.5873 10.5696 45.3293V19.6214C10.5696 19.3634 10.6721 19.1159 10.8546 18.9334C11.037 18.7509 11.2845 18.6484 11.5426 18.6484C11.8006 18.6484 12.0481 18.7509 12.2305 18.9334C12.413 19.1159 12.5155 19.3634 12.5155 19.6214V45.3293C12.5155 45.5873 12.413 45.8348 12.2305 46.0173C12.0481 46.1998 11.8006 46.3023 11.5426 46.3023Z" fill="black"/>
<path d="M11.5425 46.2984C11.2845 46.2984 11.037 46.1958 10.8546 46.0133L4.61203 39.7707C4.44607 39.5856 4.35727 39.344 4.36387 39.0954C4.37047 38.8469 4.47197 38.6103 4.64753 38.4342C4.82309 38.2582 5.05939 38.156 5.30791 38.1487C5.55643 38.1414 5.79833 38.2295 5.98392 38.395L11.5386 43.9497L17.0943 38.395C17.2778 38.2177 17.5236 38.1196 17.7787 38.1219C18.0338 38.1241 18.2778 38.2264 18.4582 38.4068C18.6386 38.5872 18.741 38.8312 18.7432 39.0863C18.7454 39.3415 18.6473 39.5872 18.4701 39.7707L12.2304 46.0133C12.048 46.1958 11.8005 46.2984 11.5425 46.2984Z" fill="black"/>
<path d="M19.5336 69.5652H3.55159C3.29354 69.5652 3.04606 69.4627 2.86359 69.2802C2.68112 69.0978 2.57861 68.8503 2.57861 68.5922V52.6112C2.57861 52.3531 2.68112 52.1056 2.86359 51.9232C3.04606 51.7407 3.29354 51.6382 3.55159 51.6382H19.5336C19.7917 51.6382 20.0392 51.7407 20.2216 51.9232C20.4041 52.1056 20.5066 52.3531 20.5066 52.6112V68.5922C20.5066 68.8503 20.4041 69.0978 20.2216 69.2802C20.0392 69.4627 19.7917 69.5652 19.5336 69.5652ZM4.52456 67.6193H18.5607V53.5841H4.52456V67.6193Z" fill="black"/>
<path d="M56.1017 61.0926C55.8645 61.0948 55.6347 61.0103 55.4554 60.855C55.2762 60.6996 55.1598 60.4842 55.1283 60.2491C55.0967 60.014 55.1521 59.7754 55.2841 59.5783C55.4161 59.3812 55.6155 59.2391 55.8449 59.1787C56.6336 58.8959 57.3666 58.477 58.0107 57.9411C58.2097 57.7805 58.464 57.7047 58.7185 57.7302C58.9729 57.7556 59.2072 57.8802 59.3705 58.077C59.5338 58.2738 59.613 58.527 59.5911 58.7818C59.5691 59.0366 59.4478 59.2725 59.2532 59.4385C58.4125 60.1373 57.4532 60.6794 56.4209 61.039C56.3181 61.0742 56.2103 61.0923 56.1017 61.0926Z" fill="black"/>
<path d="M38.5786 61.579H30.0845C29.8265 61.579 29.579 61.4765 29.3965 61.294C29.2141 61.1116 29.1116 60.8641 29.1116 60.606C29.1116 60.348 29.2141 60.1005 29.3965 59.918C29.579 59.7356 29.8265 59.6331 30.0845 59.6331H38.5786C38.8367 59.6331 39.0841 59.7356 39.2666 59.918C39.4491 60.1005 39.5516 60.348 39.5516 60.606C39.5516 60.8641 39.4491 61.1116 39.2666 61.294C39.0841 61.4765 38.8367 61.579 38.5786 61.579Z" fill="black"/>
<path d="M48.9505 61.579H45.9149C45.6568 61.579 45.4093 61.4765 45.2269 61.294C45.0444 61.1116 44.9419 60.8641 44.9419 60.606C44.9419 60.348 45.0444 60.1005 45.2269 59.918C45.4093 59.7356 45.6568 59.6331 45.9149 59.6331H48.9505C49.2086 59.6331 49.4561 59.7356 49.6385 59.918C49.821 60.1005 49.9235 60.348 49.9235 60.606C49.9235 60.8641 49.821 61.1116 49.6385 61.294C49.4561 61.4765 49.2086 61.579 48.9505 61.579Z" fill="black"/>
<path d="M61.7257 49.0471C61.4676 49.0471 61.2201 48.9446 61.0377 48.7621C60.8552 48.5797 60.7527 48.3322 60.7527 48.0741V38.899C60.7527 38.6409 60.8552 38.3935 61.0377 38.211C61.2201 38.0285 61.4676 37.926 61.7257 37.926C61.9837 37.926 62.2312 38.0285 62.4137 38.211C62.5961 38.3935 62.6986 38.6409 62.6986 38.899V48.0741C62.6986 48.3322 62.5961 48.5797 62.4137 48.7621C62.2312 48.9446 61.9837 49.0471 61.7257 49.0471Z" fill="black"/>
<path d="M35.542 67.0285C35.2841 67.0287 35.0367 66.9265 34.8541 66.7444L29.3986 61.2899C29.3082 61.1996 29.2364 61.0923 29.1874 60.9741C29.1385 60.856 29.1133 60.7294 29.1133 60.6016C29.1133 60.4737 29.1385 60.3471 29.1874 60.229C29.2364 60.1109 29.3082 60.0035 29.3986 59.9132L34.8541 54.4645C35.0376 54.2873 35.2834 54.1892 35.5385 54.1914C35.7936 54.1937 36.0376 54.296 36.218 54.4764C36.3984 54.6568 36.5007 54.9008 36.503 55.1559C36.5052 55.411 36.4071 55.6568 36.2299 55.8403L31.4623 60.6079L36.2299 65.3755C36.3659 65.5115 36.4585 65.6849 36.4961 65.8736C36.5336 66.0623 36.5143 66.2579 36.4407 66.4357C36.3671 66.6134 36.2424 66.7654 36.0824 66.8723C35.9225 66.9792 35.7344 67.0363 35.542 67.0363V67.0285Z" fill="black"/>
</svg>
